!!!COM: Bach, Johann Sebastian
!!!OPR: Joh. Seb. Bachs vierstimmige Choralges‰nge
!!!XEN: Four-part Chorales
!!!OTL: 55. Es spricht der Unweisen Mund wohl
!!!SCT: BWV 308
!!!SCA: Thematisch-systematisches Verzeichnis der musikalischen Werke Johann Sebastian Bach: Bach-Werke-Verzeichnis (Schmieder)
!!!YOR: Bach Gesellschaft Edition xxxix
!!!ENC: Steven Rasmussen
!!!CDT: 1685/3//-1750/7/28/
!!!OCY: Deutschland
!!!YEC: Copyright (c) 1994, 2000 Center for Computer Assisted Research in the Humanities
!!!YEM: Rights to all derivative editions reserved
!!!YEN: United States of America
**kern	**silbe	**kern	**kern	**silbe	**kern	**silbe
*I:[SOPRANO]	*I:[SOPRANO]	*I:[ALTO]	*I:[TENORE]	*I:[TENORE]	*I:[BASSO]	*I:[BASSO]
*>[A,A,B,A,A,B,C]	*	*>[A,A,B]	*>[A,A,B]	*	*>[A,A,B]	*
*>A	*	*>A	*>A	*	*>A	*
*clefG2	*	*clefG2	*clefGv2	*	*clefF4	*
*k[b-e-]	*	*k[b-e-]	*k[b-e-]	*	*k[b-e-]	*
*B-:	*	*B-:	*B-:	*	*B-:	*
*M4/4	*	*M4/4	*M4/4	*	*M4/4	*
4b-	Esdoch	4f	4d	.	4BB-	.
=1	=1	=1	=1	=1	=1	=1
4b-	sprichtist	4f	4d	.	4BB-	.
8aL	derihr	4e-	4c	.	4C	.
8gJ	.	.	.	.	.	.
4f	Un-Herz	4d	8cL	.	4D	.
.	.	.	8B-J	.	.	.
4b-	-wei-Un-	4d	4B-	.	4G	.
=2	=2	=2	=2	=2	=2	=2
4cc	-sen-glau-	4e-	8B-L	.	4F	.
.	.	.	8AJ	.	.	.
4dd	Mund-bens	4f	8B-L	.	4BB-	.
.	.	.	8A-J	.	.	.
4b-;	wohl:voll,	4e-;	4G;	.	4E-;	.
*>B	*	*	*	*	*	*
4f	Denmit	4c	4An	.	4E-	.
=3	=3	=3	=3	=3	=3	=3
4b-	rech-Tat	4f	4B-	.	4D	.
4cc	-tensie	4f	4e-	.	4AA	.
4dd	Gottihn	4f	8dL	.	4BB-	.
.	.	.	8cJ	.	.	.
4ee-	wirver-	4g	4B-	.	4E-	.
=4	=4	=4	=4	=4	=4	=4
8ccL	mei--nei-	2f	8B-L	.	2F	.
8b-J	.	.	16AL	.	.	.
.	.	.	16GJJ	.	.	.
4cc	.	.	4A	.	.	.
4b-;	-nen;-nen.	4f;	4d;	.	4BB-;	.
=:|!	=:|!	=:|!	=:|!	=:|!	=:|!	=:|!
*>C	*	*>B	*>B	*	*>B	*
4b-	Ihr	4f	4d	.	4BB-	.
=5	=5	=5	=5	=5	=5	=5
4g	We-	4en	4c	.	4BB-	.
4a	-sen	4f	4c	.	4AA	.
8b-L	ist	4f	4d	.	4GG	.
8aJ	.	.	.	.	.	.
4g	ver-	8eL	8GL	.	8CL	.
.	.	8dJ	16AL	.	8BB-J	.
.	.	.	16B-JJ	.	.	.
=6	=6	=6	=6	=6	=6	=6
4f	-der-	4c	8cL	.	8AAL	.
.	.	.	16B-L	.	8BB-J	.
.	.	.	16AJJ	.	.	.
4en	-bet	4c	8GL	.	4C	.
.	.	.	16AL	.	.	.
.	.	.	16B-JJ	.	.	.
4f;	zwar,	4c;	4A;	.	4FF;	.
4f	f√ºr	4c	4A	.	8FL	.
.	.	.	.	.	8E-J	.
=7	=7	=7	=7	=7	=7	=7
4b-	Gott	8fL	4B-	.	8DL	.
.	.	8gJ	.	.	8E-J	.
4cc	ist	4a	4e-	.	8DL	.
.	.	.	.	.	8CJ	.
4dd	es	4b-	4f	.	(8BB-	.
.	.	.	.	.	4B-)	.
4ee-	ein	4cc	8gL	.	.	.
.	.	.	8fJ	.	8A	.
=8	=8	=8	=8	=8	=8	=8
4dd	Greu-	(8cc	4f	.	4B-	.
.	.	4b-)	.	.	.	.
4cc	-el	.	4f	.	4F	.
.	.	8a	.	.	.	.
4dd;	gar,	4b-;	4f;	.	4BB-;	.
4cc	es	4f	8fL	.	4A	.
.	.	.	8e-J	.	.	.
=9	=9	=9	=9	=9	=9	=9
4dd	tut	4f	8dL	.	8B-L	.
.	.	.	8cJ	.	8AJ	.
4ee-	Ihr'	4g	4B-	.	4G	.
8ffL	Kei-	4a	[4c	Kei-	4F	Kei-
8ee-J	.	.	.	.	.	.
4dd	-ner	4f	8cL]	.	4B-	-ner
.	.	.	[8B-J	.	.	.
=10	=10	=10	=10	=10	=10	=10
8ccL	kein	2f	8B-]	.	2F	kein
8b-J	.	.	16ALL	-ner	.	.
.	.	.	16GJJ	.	.	.
4cc	.	.	4A	kein	.	.
4b-;	Gut.	4f;	4d;	Gut.	4BB-;	Gut.
==|!	==|!	==|!	==|!	==|!	==|!	==|!
*-	*-	*-	*-	*-	*-	*-
!!!RWG: Key is interpreted using the Humdrum key tool.
!!!END: 1994/05/25
!!!EMD: Converted from MuseData to Humdrum Dec 19, 2000, by Andreas Kornstaedt using muse2kern.
!!!EED: Craig Stuart Sapp
!!!EEV: 2024/03/31
!!!ONB: Some non-unicode characters
